X:131
T:Triumph. RHu.131
S:R.Hughes MS,1823,Whitchurch,Shrops.
A:Whitchurch, Shropshire
Z:Tony Weatherall 2006
M:2/4
L:1/8
Q:1/2=80
R:Country Dance
K:G
g|(dB)(BG)|(cA)(AF)|G(gfg)|e2(dg)|\
dBBG|(cA)AF|G2B2|””G3:|!
|:z|A3c|B2d2|A3c|B2d2|\
AAAc|BBBg|dcBA|G3:|!
|:z|B3d|dcBA|B3d|dcBA|\
B(Bcd)|efge|dcBA|G3:|

